X: 3154
Q: "Reel."
M: C
L: 1/8
K: F
uA |\
fgfd cAFA | BGAF D/D/D D :|\
f |\
cdfg agfa | gfga gfdf |
cdfg agfa | gfba (g2f)d |\
cdfg agfa | gfga gfdf |\
cfaf gfaf | gfba (g2f) |]


